!!!COM: Ives, Charles
!!!OTL: The Unanswered Question
!! From Brandt, Corra, Christ, Delone, Winold "The Comprehensive
!! Study of Music; Anthology of Music from Debussy Through Stockhausen"
!! New York: Harper's College Press, 1976; pp.23-27.
!! NOTE: The original score includes concurrent polymeters between
!! instrumental sections.  These have had to be "rationalized" into
!! a single meter.
!! Irregular meter
!! Flutes can be replaced by oboes or clarinets.
**kern	**kern	**kern	**kern	**kern	**kern	**kern	**kern	**kern
*M4/4	*M4/4	*M4/4	*M4/4	*M4/4	*M4/4	*M4/4	*M4/4	*M4/4
!'CelB	!Viola	!Vln2	!Vln1	!Trump	!Flute4	!Flute3	!Flute2	!Flute1
=1	=1	=1	=1	=1	=1	=1	=1	=1
[1GG	[1B	[1dd	[1ggg	1r	1r	1r	1r	1r
=2	=2	=2	=2	=2	=2	=2	=2	=2
1GG_	1B_	1dd_	1ggg_	1r	1r	1r	1r	1r
=3	=3	=3	=3	=3	=3	=3	=3	=3
1GG]	1B]	1dd]	1ggg]	1r	1r	1r	1r	1r
=4	=4	=4	=4	=4	=4	=4	=4	=4
[1BB	[1B	[1dd	[1fff#	1r	1r	1r	1r	1r
=5	=5	=5	=5	=5	=5	=5	=5	=5
2BB]	2B]	2dd]	2fff#]	1r	1r	1r	1r	1r
[2BB	[{2g	[2g	2eee	.	.	.	.	.
=6	=6	=6	=6	=6	=6	=6	=6	=6
1BB]	2.g]	1g]	2eee	1r	1r	1r	1r	1r
.	.	.	2ddd	.	.	.	.	.
.	4f}	.	.	.	.	.	.	.
=7	=7	=7	=7	=7	=7	=7	=7	=7
2C	1e	2dd	[1ccc	1r	1r	1r	1r	1r
2GG	.	[2ee	.	.	.	.	.	.
=8	=8	=8	=8	=8	=8	=8	=8	=8
[1CC	[1g	1ee_	1ccc_	1r	1r	1r	1r	1r
=9	=9	=9	=9	=9	=9	=9	=9	=9
2CC]	1g_	1ee_	2.ccc]	1r	1r	1r	1r	1r
4C	.	.	.	.	.	.	.	.
[4BB	.	.	[4ddd	.	.	.	.	.
=10	=10	=10	=10	=10	=10	=10	=10	=10
4BB]	4g]	1ee_	4ddd]	1r	1r	1r	1r	1r
[2.AA	[2.a	.	[2.ccc	.	.	.	.	.
=11	=11	=11	=11	=11	=11	=11	=11	=11
1AA]	4a]	1ee_	1ccc]	1r	1r	1r	1r	1r
.	{4A	.	.	.	.	.	.	.
.	4B	.	.	.	.	.	.	.
.	4c	.	.	.	.	.	.	.
=12	=12	=12	=12	=12	=12	=12	=12	=12
1AA	4d	1ee]	1ccc	1r	1r	1r	1r	1r
.	4e	.	.	.	.	.	.	.
.	4d	.	.	.	.	.	.	.
.	4c}	.	.	.	.	.	.	.
=13	=13	=13	=13	=13	=13	=13	=13	=13
{4BB	[1B	[1dd	[1ggg	1r	1r	1r	1r	1r
4C	.	.	.	.	.	.	.	.
4BB	.	.	.	.	.	.	.	.
4AA}	.	.	.	.	.	.	.	.
=14	=14	=14	=14	=14	=14	=14	=14	=14
[1GG	1B_	1dd_	1ggg_	1r	1r	1r	1r	1r
=15	=15	=15	=15	=15	=15	=15	=15	=15
1GG_	1B_	1dd_	1ggg_	1r	1r	1r	1r	1r
=16	=16	=16	=16	=16	=16	=16	=16	=16
1GG]	1B_	1dd_	1ggg]	[3b-	1r	1r	1r	1r
.	.	.	.	9b-]	.	.	.	.
.	.	.	.	9c#	.	.	.	.
.	.	.	.	9en	.	.	.	.
.	.	.	.	[{3ee-	.	.	.	.
=17	=17	=17	=17	=17	=17	=17	=17	=17
[1BB	1B_	1dd_	[1fff#	9ee-]	1r	1r	1r	1r
.	.	.	.	[9ccn	.	.	.	.
.	.	.	.	9cc]	.	.	.	.
.	.	.	.	3r	.	.	.	.
.	.	.	.	3r	.	.	.	.
!! page 24
=18	=18	=18	=18	=18	=18	=18	=18	=18
2BB]	2B]	2dd]	2fff#]	1r	1r	1r	1r	1r
[2BB	[{2g	[2g	[2eee	.	.	.	.	.
=19	=19	=19	=19	=19	=19	=19	=19	=19
1BB]	2.g]	1g]	2eee]	1r	1r	1r	1r	1r
.	.	.	2ddd	.	.	.	.	.
.	4f}	.	.	.	.	.	.	.
!! Adagio
=20	=20	=20	=20	=20	=20	=20	=20	=20
2C	1e	2dd	[1ccc	1r	3r	3r	3r	3r
.	.	.	.	.	3r	3r	12r	[3ffn
.	.	.	.	.	.	.	[6.f#	.
2GG	.	[2ee	.	.	.	.	.	.
.	.	.	.	.	[3d-	6r	3f#_	2ffn_
.	.	.	.	.	.	[6b	.	.
=21	=21	=21	=21	=21	=21	=21	=21	=21
[1CC	[1g	1ee_	1ccc_	1r	3d_	3b_	3f#_	3ff_
.	.	.	.	.	12d]	3b_	3f#_	12ff]
.	.	.	.	.	12d#	.	.	12ee
.	.	.	.	.	12e	.	.	12ee-
.	.	.	.	.	[12fn	.	.	[12ddd
.	.	.	.	.	6f]	6b]	6f#]	6ddd]
.	.	.	.	.	6r	6r	6r	6r
=22	=22	=22	=22	=22	=22	=22	=22	=22
2CC]	1g_	1ee_	2.ccc]	1r	1r	1r	1r	1r
4C	.	.	.	.	.	.	.	.
[4BB	.	.	[4ddd	.	.	.	.	.
=23	=23	=23	=23	=23	=23	=23	=23	=23
4BB]	4g]	1ee_	4ddd]	3r	1r	1r	1r	1r
[2.AA	[2.a	.	2.ccc	.	.	.	.	.
.	.	.	.	3r	.	.	.	.
.	.	.	.	[{3b-	.	.	.	.
=24	=24	=24	=24	=24	=24	=24	=24	=24
1AA_	4a]	1ee_	[1ccc	9b-]	1r	1r	1r	1r
.	.	.	.	9c#	.	.	.	.
.	.	.	.	9en}	.	.	.	.
.	{4A	.	.	.	.	.	.	.
.	.	.	.	[{3ee-	.	.	.	.
.	4B	.	.	.	.	.	.	.
.	.	.	.	9ee-]	.	.	.	.
.	4c	.	.	.	.	.	.	.
.	.	.	.	[9bn	.	.	.	.
.	.	.	.	9b}]	.	.	.	.
=25	=25	=25	=25	=25	=25	=25	=25	=25
1AA]	4d	1ee]	1ccc]	1r	1r	1r	1r	1r
!! Andante
=26	=26	=26	=26	=26	=26	=26	=26	=26
{4BB	[1B	[1dd	[1ggg	1r	3r	3r	3r	3r
4C	.	.	.	.	.	.	.	.
.	.	.	.	.	3r	3r	3r	3r
4BB	.	.	.	.	.	.	.	.
.	.	.	.	.	[3f#	[3cc	[3ffn	[3ddd-
4AA}	.	.	.	.	.	.	.	.
=27	=27	=27	=27	=27	=27	=27	=27	=27
[1GG	1B_	1dd_	1ggg_	1r	4f#]	2.cc]	4ff]	2.ddd]
.	.	.	.	.	[2.g#	.	[2.gn	.
.	.	.	.	.	.	[4b	.	[{4ccc
!! Polymetric passage from here to bar 30; score has been interpreted
!! so only one meter prevails.
=28	=28	=28	=28	=28	=28	=28	=28	=28
1GG_	1B_	1dd_	1ggg_	1r	2.g#]	4b]	1gg_	4ccc]
.	.	.	.	.	.	[2.cc	.	2bb
.	.	.	.	.	{8a	.	.	8bb-
.	.	.	.	.	8a#	.	.	8aa
=29	=29	=29	=29	=29	=29	=29	=29	=29
2.GG]	2.B]	1dd_	1ggg_	1r	4b}	4cc]	4gg]	4aa-}
.	.	.	.	.	4r	4r	4r	4r
.	.	.	.	.	2r	2r	2r	2r
[4AA	[4c	.	.	.	.	.	.	.
!! page 25
=30	=30	=30	=30	=30	=30	=30	=30	=30
4AA]	4c]	1dd_	1ggg]	1r	1r	1r	1r	1r
[2.BB	[2.d	.	.	.	.	.	.	.
=31	=31	=31	=31	=31	=31	=31	=31	=31
1BB_	1d_	1dd_	[1fff#	4r	1r	1r	1r	1r
.	.	.	.	[2b-	.	.	.	.
.	.	.	.	8b-]	.	.	.	.
.	.	.	.	8c#	.	.	.	.
=32	=32	=32	=32	=32	=32	=32	=32	=32
1BB_	1d_	1dd_	1fff#_	4en	1r	1r	1r	1r
.	.	.	.	[2ee-	.	.	.	.
.	.	.	.	8ee-]	.	.	.	.
.	.	.	.	[8ccn	.	.	.	.
=33	=33	=33	=33	=33	=33	=33	=33	=33
2BB]	2d]	2dd]	2fff#]	8cc]	1r	1r	1r	1r
.	.	.	.	8r	.	.	.	.
.	.	.	.	4r	.	.	.	.
[2C	[2e	[2gg	[2eee	2r	.	.	.	.
!! Allegretto
=34	=34	=34	=34	=34	=34	=34	=34	=34
1C]	1e_	1gg_	1eee_	1r	4r	2r	4r	4r
.	.	.	.	.	[2.g#	.	2.b	[2.aa
.	.	.	.	.	.	4cc	.	.
.	.	.	.	.	.	4ggn	.	.
=35	=35	=35	=35	=35	=35	=35	=35	=35
1C	1e_	1gg_	1eee_	1r	4g#]	4ff	[1cc	4aa]
.	.	.	.	.	4an	[2.ee	.	4.aa-
.	.	.	.	.	4.b	.	.	.
.	.	.	.	.	.	.	.	8gg
.	.	.	.	.	.	.	.	4gg-
.	.	.	.	.	8dd	.	.	.
=36	=36	=36	=36	=36	=36	=36	=36	=36
2D	2f]	2gg]	1eee_	1r	2cc#	2ee]	4cc]	4ff
.	.	.	.	.	.	.	2cc	2ff
[2E	[2g	[2cc	.	.	4cc#'	4ee'	.	.
.	.	.	.	.	4r	4r	4r	4r
=37	=37	=37	=37	=37	=37	=37	=37	=37
1E_	1g_	1cc_	1eee_	1r	1r	1r	1r	1r
=38	=38	=38	=38	=38	=38	=38	=38	=38
1E]	1g]	1cc_	2eee]	1r	1r	1r	1r	1r
.	.	.	[2ddd	.	.	.	.	.
=39	=39	=39	=39	=39	=39	=39	=39	=39
[1F	[1a	1cc_	2ddd]	3r	1r	1r	1r	1r
.	.	.	.	3r	.	.	.	.
.	.	.	[2ccc	.	.	.	.	.
.	.	.	.	[3b-	.	.	.	.
=40	=40	=40	=40	=40	=40	=40	=40	=40
1F_	1a]	1cc_	1ccc_	9b-]	1r	1r	1r	1r
.	.	.	.	9c#	.	.	.	.
.	.	.	.	9en}	.	.	.	.
.	.	.	.	.	.	.	.	.
.	.	.	.	{3ee-	.	.	.	.
.	.	.	.	.	.	.	.	.
.	.	.	.	9ee-	.	.	.	.
.	.	.	.	.	.	.	.	.
.	.	.	.	[9bn	.	.	.	.
.	.	.	.	9b}]	.	.	.	.
=41	=41	=41	=41	=41	=41	=41	=41	=41
1F]	1a	1cc]	2ccc]	1r	1r	1r	1r	1r
.	.	.	[2bb	.	.	.	.	.
!! Allegro
!! Polymetric passage from here to bar 44; score has been interpreted
!! so only one meter prevails.
=42	=42	=42	=42	=42	=42	=42	=42	=42
[1G	[1b	[1ee	1bb_	1r	4r	4r	4r	4r
.	.	.	.	.	2g#	2b	2aa	2ccc
.	.	.	.	.	4e	4gn	4dd#	4ff#
*M3/4	*M3/4	*M3/4	*M3/4	*M3/4	*M3/4	*M3/4	*M3/4	*M3/4
=43	=43	=43	=43	=43	=43	=43	=43	=43
2.G]	2.b]	2.ee_	2.bb]	2.r	4d	4f#	4ffn	4aa-
.	.	.	.	.	8c#'	8e'	2ccc	2eee-
.	.	.	.	.	8d'	8fn'	.	.
.	.	.	.	.	8b'	8een'	.	.
.	.	.	.	.	8cc'	8ff'	.	.
*M1/4	*M1/4	*M1/4	*M1/4	*M1/4	*M1/4	*M1/4	*M1/4	*M1/4
=44	=44	=44	=44	=44	=44	=44	=44	=44
[4A	[4cc	4ee_	[4aa	4r	4a	4ddn	4gg#	4ccc#
!! Glissando in the 4th flute part from 4d# to 2dd#:
*M4/4	*M4/4	*M4/4	*M4/4	*M4/4	*M4/4	*M4/4	*M4/4	*M4/4
=45	=45	=45	=45	=45	=45	=45	=45	=45
1A]	1cc]	1ee_	1aa]	1r	4d#	8ccn	8bb	8bb
.	.	.	.	.	.	16bn	{16bb-	{16bb-
.	.	.	.	.	.	16b-	16aa}	16aa}
.	.	.	.	.	2dd#	2ff#	2eee	2ggg
.	.	.	.	.	4r	4r	4r	4r
!! page 26
=46	=46	=46	=46	=46	=46	=46	=46	=46
[1B	[1b	1ee_	[1gg	1r	1r	1r	1r	1r
=47	=47	=47	=47	=47	=47	=47	=47	=47
2B]	2b]	2ee]	2gg]	1r	1r	1r	1r	1r
[2c	[2g	[2cc	2ff	.	.	.	.	.
=48	=48	=48	=48	=48	=48	=48	=48	=48
1c]	1g]	1cc]	1ee	3r	1r	1r	1r	1r
.	.	.	.	[3b-	.	.	.	.
.	.	.	.	9b-]	.	.	.	.
.	.	.	.	9c#	.	.	.	.
.	.	.	.	8en	.	.	.	.
=49	=49	=49	=49	=49	=49	=49	=49	=49
2B	2b	2ee	2gg	[3ee-	1r	1r	1r	1r
.	.	.	.	9ee-]	.	.	.	.
.	.	.	.	[9cc	.	.	.	.
2A	2cc	2ff	2aa	.	.	.	.	.
.	.	.	.	9cc]	.	.	.	.
.	.	.	.	3r	.	.	.	.
!! Polymetric passage from here to bar 62; score has been interpreted
!! so only one meter prevails.
!! Allegro molto
*M3/4	*M3/4	*M3/4	*M3/4	*M3/4	*M3/4	*M3/4	*M3/4	*M3/4
=50	=50	=50	=50	=50	=50	=50	=50	=50
2.G	2.a	2.ee	2.bb	2.r	4r	4r	1r	2r
.	.	.	.	.	8r	8r	.	.
.	.	.	.	.	[8f	{8f	.	.
.	.	.	.	.	4f]	8ee	.	4r
.	.	.	.	.	.	8bn}	.	.
*M1/4	*M1/4	*M1/4	*M1/4	*M1/4	*M1/4	*M1/4	*M1/4	*M1/4
=51	=51	=51	=51	=51	=51	=51	=51	=51
[4F	[4cc	[4ff	[4aa	4r	4f#	4cc#	4r	{8cccn
.	.	.	.	.	.	.	.	8dd}
*M4/4	*M4/4	*M4/4	*M4/4	*M4/4	*M4/4	*M4/4	*M4/4	*M4/4
=52	=52	=52	=52	=52	=52	=52	=52	=52
2F]	2cc]	2ff]	2.aa]	1r	4en	{8ddn	4ee-	{8ee-
.	.	.	.	.	.	8dd-}	.	8dddn}
.	.	.	.	.	8d#	{8cc	12een'	12fff'
.	.	.	.	.	.	.	12ff'	12eee'
.	.	.	.	.	4e	4cc#}	.	.
.	.	.	.	.	.	.	12ee'	12fff'
2E	[2g	2cc	.	.	.	.	12ff'	12eee'
.	.	.	.	.	.	.	12gg-'	12fff'
.	.	.	.	.	{8f	[{8dd	.	.
.	.	.	.	.	.	.	12ff'	12eee'
.	.	.	[4gg	.	8f	8dd]	12ee'	{8eee-
.	.	.	.	.	.	.	12ggn'	.
.	.	.	.	.	8f#}	8dd#}	.	8ddd}
.	.	.	.	.	.	.	12ff'	.
*M5/4	*M5/4	*M5/4	*M5/4	*M5/4	*M5/4	*M5/4	*M5/4	*M5/4
=53	=53	=53	=53	=53	=53	=53	=53	=53
[1BB	2.g]	[1dd	1gg_	1r	4g#'	4ffn'	4ggn'	4fff#'
.	.	.	.	.	4r	4r	4r	4r
.	.	.	.	.	4r	4r	4r	4r
.	2f	.	.	.	[2c	[2d-	[2d	[2e-
4BB]	.	4dd]	4gg]	4r	.	.	.	.
*M4/4	*M4/4	*M4/4	*M4/4	*M4/4	*M4/4	*M4/4	*M4/4	*M4/4
=54	=54	=54	=54	=54	=54	=54	=54	=54
1C	1e	[1cc	2ddd	1r	1c_	1d-_	1d_	1e-_
.	.	.	[2ccc	.	.	.	.	.
=55	=55	=55	=55	=55	=55	=55	=55	=55
1AA	2e	1cc]	1ccc_	[3b-	1c_	1d-_	1d_	1e-_
.	.	.	.	9b-]	.	.	.	.
.	.	.	.	9c#	.	.	.	.
.	4d	.	.	.	.	.	.	.
.	.	.	.	9en	.	.	.	.
.	.	.	.	[3ee-	.	.	.	.
.	[4c	.	.	.	.	.	.	.
!! Allegro - accel. to Presto
=56	=56	=56	=56	=56	=56	=56	=56	=56
[1GG	4c]	[1dd	4ccc]	9ee-]	1r]	1r]	4r]	4r]
.	.	.	.	[9bn	.	.	.	.
.	.	.	.	9b]	.	.	.	.
.	[2.B	.	{4fff	.	.	.	[{4b-	[{4b-
.	.	.	.	3r	.	.	.	.
.	.	.	4eee	.	.	.	12b-]	12b-]
.	.	.	.	.	.	.	12c#	12c#
.	.	.	.	.	.	.	12en	12en
.	.	.	.	3r	.	.	.	.
.	.	.	[4ddd	.	.	.	6ee-	6ee-
.	.	.	.	.	.	.	12b-}	12bn}
*M1/4	*M1/4	*M1/4	*M1/4	*M1/4	*M1/4	*M1/4	*M1/4	*M1/4
=57	=57	=57	=57	=57	=57	=57	=57	=57
4GG_	4B_	4dd_	4ddd_	1r	4r	{8f	{12een	{12een
.	.	.	.	.	.	.	12g	12g
.	.	.	.	.	.	8f#}	.	.
.	.	.	.	.	.	.	12b-	12b-
*M3/4	*M3/4	*M3/4	*M3/4	*M3/4	*M3/4	*M3/4	*M3/4	*M3/4
=58	=58	=58	=58	=58	=58	=58	=58	=58
2.GG_	2.B_	2.dd_	2.ddd_	2.r	{8dn	{8a-	12aan	12aan
.	.	.	.	.	.	.	12ee	12ee
.	.	.	.	.	8d#}	8g}	.	.
.	.	.	.	.	.	.	12cc}	12cc}
!! page 27
.	.	.	.	.	12en'	12an'	{16dd#	{16dd#
.	.	.	.	.	.	.	16dddn}	16dddn}
.	.	.	.	.	12fn'	12b-'	.	.
.	.	.	.	.	.	.	{16aa	{16aa
.	.	.	.	.	12g'	12cc'	.	.
.	.	.	.	.	.	.	16gg#}	16gg#}
.	.	.	.	.	6cc#	6ff#	{8gggn	{8gggn
.	.	.	.	.	.	.	16ggg#	16ggg#
.	.	.	.	.	12a	12ggn	.	.
.	.	.	.	.	.	.	[16aaa	[16aaa
*M3/4	*M3/4	*M3/4	*M3/4	*M3/4	*M3/4	*M3/4	*M3/4	*M3/4
=59	=59	=59	=59	=59	=59	=59	=59	=59
2.GG_	2.B_	2.dd]	2.ddd]	2.r	4ccn	{12ccn	16aaa]	16aaa]
.	.	.	.	.	.	.	16ggn}	16ggn}
.	.	.	.	.	.	12bb	.	.
.	.	.	.	.	.	.	{8fff#	{8fff#
.	.	.	.	.	.	12ff}	.	.
.	.	.	.	.	16r	8cccn	16dddn}	16dddn}
.	.	.	.	.	8ddn'	.	{8ddd#	{8ddd#
.	.	.	.	.	.	[8cc#	.	.
.	.	.	.	.	16f'	.	16bb-}	16bb-}
.	.	.	.	.	8a	8cc#]	8bbn	{8bbn
.	.	.	.	.	8b	16dd'	16aan	16aan}
.	.	.	.	.	.	16ee-'	[{16aa-	[{16aa-
*M1/4	*M1/4	*M1/4	*M1/4	*M1/4	*M1/4	*M1/4	*M1/4	*M1/4
=60	=60	=60	=60	=60	=60	=60	=60	=60
4GG_	4B_	[4cc	[4eee	4r	4a	16ff'	16aa-]	16aa-]
.	.	.	.	.	.	16ff#'	16gggn}	16gggn}
.	.	.	.	.	.	16aa-'	8ff#	8ff#
.	.	.	.	.	.	16gg'	.	.
*M4/4	*M4/4	*M4/4	*M4/4	*M4/4	*M4/4	*M4/4	*M4/4	*M4/4
=61	=61	=61	=61	=61	=61	=61	=61	=61
1GG_	4B]	2cc]	2eee]	1r	16b-	16b-	4an	12ee
.	.	.	.	.	8d-	8d-	.	.
.	.	.	.	.	.	.	.	{12g#
.	.	.	.	.	.	.	.	12b-}
.	.	.	.	.	12f	12f	.	.
.	[2.c	.	.	.	8d	8ee-'	8gg#	8aa
.	.	.	.	.	4f	[8ddn	16ee	16ee
.	.	.	.	.	.	.	[16dd#	[16dd#
.	.	{2a	[2fff#	.	.	8dd]	8dd#]	8dd#]
.	.	.	.	.	8g	8r	16f#	16f#
.	.	.	.	.	12a'	12dd'	16ee-'	16aa-'
.	.	.	.	.	.	.	16b-'	16ee-'
.	.	.	.	.	12bn'	12cc'	.	.
.	.	.	.	.	.	.	16een'	16aan'
.	.	.	.	.	12b-'	12cc#'	.	.
.	.	.	.	.	.	.	16an'	16ddn'
=62	=62	=62	=62	=62	=62	=62	=62	=62
1GG_	2c]	2ee}	2fff#]	1r	16g'	16ccn'	16a-'	16dd-'
.	.	.	.	.	16f#'	16b'	16g'	16cc'
.	.	.	.	.	16e'	16a'	16fn'	16b-'
.	.	.	.	.	16e-'	16a-'	16g'	16a'
.	.	.	.	.	8gg#	8bbn	2.gggn	2.bbb-
.	.	.	.	.	[8fff#	[8aaa	.	.
.	{2B	{2dd	[2ggg	.	2fff#]	2aaa]	.	.
=63	=63	=63	=63	=63	=63	=63	=63	=63
1GG_	2A}	2cc}	1ggg_	1r	1r	1r	1r	1r
.	{2B	{2dd	.	.	.	.	.	.
=64	=64	=64	=64	=64	=64	=64	=64	=64
1GG_	2c}	2ee}	1ggg_	1r	1r	1r	1r	1r
.	[2B	[2dd	.	.	.	.	.	.
=65	=65	=65	=65	=65	=65	=65	=65	=65
1GG_	1B_	1dd_	1ggg_	3r	1r	1r	1r	1r
.	.	.	.	3r	.	.	.	.
.	.	.	.	[3b-	.	.	.	.
=66	=66	=66	=66	=66	=66	=66	=66	=66
1GG_	1B_	1dd_	1ggg_	9b-]	1r	1r	1r	1r
.	.	.	.	9c#	.	.	.	.
.	.	.	.	9en	.	.	.	.
.	.	.	.	[3ee-	.	.	.	.
.	.	.	.	9ee-]	.	.	.	.
.	.	.	.	[9bn	.	.	.	.
.	.	.	.	9b]	.	.	.	.
=67	=67	=67	=67	=67	=67	=67	=67	=67
1GG_	1B_	1dd_	1ggg_	1r	1r	1r	1r	1r
=68	=68	=68	=68	=68	=68	=68	=68	=68
1GG]	1B]	1dd]	1ggg]	1r	1r	1r	1r	1r
==	==	==	==	==	==	==	==	==
*-	*-	*-	*-	*-	*-	*-	*-	*-
